{"orientation":"orthogonal","renderorder":"right-down","width":16,"height":12,"tilewidth":6,"tileheight":6,"tilesets":[{"firstgid":1,"name":"keeper","image":"assets/keeper.png","imagewidth":96,"imageheight":18,"tilewidth":6,"tileheight":6,"tilecount":48,"columns":16}],"layers":[{"type":"tilelayer","name":"mosaic","width":16,"height":12,"offsetx":516,"offsety":242,"data":[1,2,3,4,5,6,7,8,9,10,11,12,13,14,15,16,17,18,19,20,21,22,23,24,25,26,27,28,29,30,31,32,33,34,35,36,37,38,39,40,41,42,43,44,45,46,47,48,1,2,3,4,5,6,7,8,9,10,11,12,13,14,15,16,17,18,19,20,21,22,23,24,25,26,27,28,29,30,31,32,33,34,35,36,37,38,39,40,41,42,43,44,45,46,47,48,1,2,3,4,5,6,7,8,9,10,11,12,13,14,15,16,17,18,19,20,21,22,23,24,25,26,27,28,29,30,31,32,33,34,35,36,37,38,39,40,41,42,43,44,45,46,47,48,1,2,3,4,5,6,7,8,9,10,11,12,13,14,15,16,17,18,19,20,21,22,23,24,25,26,27,28,29,30,31,32,33,34,35,36,37,38,39,40,41,42,43,44,45,46,47,48]}]}
